public/themes/sci-fi/launch.svg

<?xml version="1.0" encoding="UTF-8" standalone="no"?>
<svg
   viewBox="67.9786 128.7762 122.9286 119.2394"
   width="122.929px"
   height="119.239px"
   preserveAspectRatio="none"
   version="1.1"
   id="svg12"
   sodipodi:docname="launch.svg"
   inkscape:version="1.4.2 (ebf0e940, 2025-05-08)"
   xmlns:inkscape="http://www.inkscape.org/namespaces/inkscape"
   xmlns:sodipodi="http://sodipodi.sourceforge.net/DTD/sodipodi-0.dtd"
   xmlns="http://www.w3.org/2000/svg"
   xmlns:svg="http://www.w3.org/2000/svg">
  <defs
     id="defs12" />
  <sodipodi:namedview
     id="namedview12"
     pagecolor="#ffffff"
     bordercolor="#000000"
     borderopacity="0.25"
     inkscape:showpageshadow="2"
     inkscape:pageopacity="0.0"
     inkscape:pagecheckerboard="0"
     inkscape:deskcolor="#d1d1d1"
     inkscape:zoom="6.1420895"
     inkscape:cx="43.226332"
     inkscape:cy="57.960732"
     inkscape:window-width="1712"
     inkscape:window-height="971"
     inkscape:window-x="0"
     inkscape:window-y="39"
     inkscape:window-maximized="1"
     inkscape:current-layer="object-0" />
  <g
     id="object-0"
     transform="matrix(1, 0, 0, 1, 0, 7.105427357601002e-15)">
    <path
       style="stroke:rgb(0, 0, 0);stroke-opacity:0;fill:#00a6bd;fill-opacity:1"
       d="M 124.036 140.136 C 124.036 141.641 124.036 143.147 124.036 144.652 C 124.036 144.706 123.967 146.128 124.022 146.15 C 124.798 146.456 126.561 146.164 127.327 146.164 C 129.708 146.164 134.227 147.466 134.838 144.24 C 134.942 143.69 134.884 143.07 134.874 142.515 C 134.87 142.298 134.61 139.827 134.316 139.737 C 132.754 139.258 130.43 139.971 128.824 139.981 C 127.835 139.988 124.689 139.458 123.954 140.465"
       id="path10" />
    <path
       d="m 141.607,215.795 v -19.66 c 0,-0.234 -0.081,-0.461 -0.23,-0.64 l -5.73,-6.89 v -42.81 -6 c -0.001,-0.134 -0.025,-0.265 -0.07,-0.39 0.005,-0.044 0.005,-0.087 0,-0.13 l -5.82,-10 c -0.386,-0.665 -1.345,-0.665 -1.73,0 l -5.82,10 c -0.023,0.04 -0.04,0.084 -0.05,0.13 -0.046,0.115 -0.073,0.236 -0.08,0.36 v 6 42.84 l -5.72,6.89 c -0.149,0.179 -0.231,0.406 -0.23,0.64 v 19.66 c 0,0.552 0.447,1 1,1 h 10.7 v 2.75 c 0,0.769 0.833,1.25 1.5,0.866 0.309,-0.179 0.5,-0.509 0.5,-0.866 v -2.75 h 10.78 c 0.552,0 1,-0.448 1,-1 z m -17.6,-75 h 9.64 v 4 h -9.64 z m 4.82,-9 4.1,7 h -8.19 z m -10.77,64.7 4,-4.76 v 23.06 h -4 z m 11.77,18.3 0.11546,-26.09719 c 0.003,-0.77 -0.48761,-1.59739 -1.15361,-1.21239 -0.31,0.178 -0.96185,0.79665 -0.96185,1.15465 V 214.795 h -3.82 v -68 h 9.64 v 68 z m 9.78,0 h -4 v -23.06 l 4,4.76 z"
       style="fill:#00a6bd;fill-opacity:1;stroke-width:1"
       id="path1"
       sodipodi:nodetypes="sscccccccccccccccsscscscsscccccccccccccccscsccccccccccc" />
    <path
       d="M 124.477 219.135 C 123.924 219.135 123.477 219.582 123.477 220.135 L 123.477 230.965 C 121.98 231.222 120.738 232.265 120.227 233.695 C 120.039 234.214 120.308 234.787 120.827 234.975 C 120.936 235.014 121.051 235.034 121.167 235.035 C 121.59 235.033 121.967 234.764 122.107 234.365 C 122.521 233.205 123.794 232.597 124.957 233.005 C 125.664 233.309 126.435 232.735 126.346 231.97 C 126.299 231.569 126.015 231.235 125.627 231.125 L 125.477 231.125 L 125.477 220.125 C 125.471 219.576 125.025 219.135 124.477 219.135 Z"
       style="stroke-width:1;fill:#00a6bd;fill-opacity:1"
       id="path2"
       transform="translate(-3.3045106e-7)" />
    <path
       d="M 134.167 225.635 L 134.167 220.135 C 134.167 219.365 133.333 218.884 132.667 219.269 C 132.357 219.447 132.167 219.777 132.167 220.135 L 132.167 225.635 C 132.167 226.404 133 226.885 133.667 226.501 C 133.976 226.322 134.167 225.992 134.167 225.635 Z"
       style="stroke-width:1;fill:#00a6bd;fill-opacity:1"
       id="path3"
       transform="translate(-3.3045106e-7)" />
    <path
       d="M 125.697 237.215 C 126.314 237.213 126.857 237.621 127.027 238.215 C 127.214 238.961 128.139 239.226 128.692 238.691 C 128.747 238.638 128.795 238.579 128.837 238.515 C 129.855 236.836 132.308 236.89 133.252 238.611 C 133.463 238.995 133.571 239.426 133.567 239.865 C 133.567 240.634 134.4 241.115 135.067 240.731 C 135.376 240.552 135.567 240.222 135.567 239.865 C 135.572 236.354 131.775 234.155 128.732 235.906 C 128.542 236.015 128.359 236.139 128.187 236.275 C 127.548 235.575 126.644 235.176 125.697 235.175 C 124.927 235.175 124.446 236.008 124.831 236.675 C 125.009 236.984 125.339 237.175 125.697 237.175 L 125.697 237.215 Z"
       style="stroke-width:1;fill:#00a6bd;fill-opacity:1"
       id="path4"
       transform="translate(-3.3045106e-7)" />
    <path
       d="M 138.697 234.085 C 138.697 234.854 139.53 235.335 140.197 234.951 C 140.506 234.772 140.697 234.442 140.697 234.085 C 140.691 230.703 137.948 227.965 134.567 227.965 C 133.797 227.965 133.316 228.798 133.701 229.465 C 133.879 229.774 134.209 229.965 134.567 229.965 C 136.844 229.965 138.691 231.808 138.697 234.085 Z"
       style="stroke-width:1;fill:#00a6bd;fill-opacity:1"
       id="path5"
       transform="translate(-3.3045106e-7)" />
    <path
       d="M 170.697 233.465 C 170.734 225.959 162.632 221.228 156.114 224.949 C 154.028 226.139 152.456 228.057 151.697 230.335 C 150.831 229.923 149.885 229.712 148.927 229.715 C 145.337 229.715 142.427 232.625 142.427 236.215 C 142.427 236.984 143.26 237.465 143.927 237.081 C 144.236 236.902 144.427 236.572 144.427 236.215 C 144.432 233.732 146.444 231.72 148.927 231.715 C 149.94 231.721 150.921 232.074 151.707 232.715 C 152.3 233.178 153.173 232.845 153.307 232.105 C 154.395 226.239 161.425 223.75 165.961 227.625 C 167.678 229.093 168.67 231.236 168.677 233.495 C 168.677 234.264 169.51 234.745 170.177 234.361 C 170.486 234.182 170.677 233.852 170.677 233.495 L 170.697 233.465 Z"
       style="stroke-width:1;fill:#00a6bd;fill-opacity:1"
       id="path6"
       transform="translate(-3.3045106e-7)" />
    <path
       d="M 73.297 247.495 C 75.302 248.256 77.528 248.18 79.477 247.285 C 80.177 246.965 80.269 246.007 79.642 245.56 C 79.351 245.353 78.972 245.316 78.647 245.465 C 75.608 246.823 72.043 245.485 70.647 242.465 C 69.268 239.456 70.554 235.898 73.537 234.465 C 74.034 234.808 74.563 235.103 75.117 235.345 C 75.232 235.385 75.354 235.405 75.477 235.405 C 76.246 235.403 76.726 234.569 76.34 233.903 C 76.231 233.716 76.065 233.569 75.867 233.485 C 70.566 231.256 69.666 224.124 74.246 220.648 C 74.446 220.497 74.653 220.355 74.867 220.225 C 75.447 219.874 75.518 219.06 75.007 218.615 C 74.08 217.822 73.546 216.664 73.547 215.445 C 73.594 212.181 77.157 210.193 79.96 211.866 C 80.217 212.02 80.457 212.2 80.677 212.405 C 80.921 212.631 81.262 212.721 81.587 212.645 C 81.914 212.567 82.181 212.331 82.297 212.015 C 83.802 207.795 89.311 206.787 92.213 210.2 C 92.919 211.032 93.378 212.045 93.537 213.125 C 90.031 213.782 87.488 216.838 87.477 220.405 C 87.477 221.174 88.31 221.655 88.977 221.271 C 89.286 221.092 89.477 220.762 89.477 220.405 C 89.461 216.217 93.984 213.582 97.619 215.662 C 101.057 217.63 101.306 222.496 98.087 224.805 C 95.157 226.031 93.108 228.733 92.717 231.885 C 92.386 231.829 92.052 231.799 91.717 231.795 C 90.013 231.79 88.378 232.467 87.177 233.675 C 86.782 234.066 86.782 234.703 87.177 235.095 C 87.567 235.482 88.197 235.482 88.587 235.095 C 90.978 232.685 95.081 233.768 95.972 237.044 C 96.076 237.425 96.128 237.819 96.127 238.215 C 96.127 238.984 96.96 239.465 97.627 239.081 C 97.936 238.902 98.127 238.572 98.127 238.215 C 98.126 235.815 96.788 233.617 94.657 232.515 C 94.826 229.918 96.454 227.643 98.857 226.645 C 103.157 224.884 107.923 227.839 108.257 232.475 C 108.303 233.152 108.996 233.587 109.627 233.335 C 110.208 233.097 110.829 232.975 111.457 232.975 C 114.218 232.975 116.457 235.213 116.457 237.975 C 116.457 238.744 117.29 239.225 117.957 238.841 C 118.266 238.662 118.457 238.332 118.457 237.975 C 118.445 233.574 114.424 230.276 110.107 231.125 C 109.229 227.055 105.64 224.144 101.477 224.125 L 101.327 224.125 C 104.091 219.427 101.007 213.453 95.577 212.985 C 94.855 207 87.926 204.042 83.104 207.659 C 82.229 208.316 81.5 209.149 80.967 210.105 C 80.005 209.522 78.901 209.214 77.777 209.215 C 72.981 209.184 69.95 214.356 72.321 218.525 C 72.457 218.764 72.61 218.995 72.777 219.215 C 68.465 222.655 68.004 229.041 71.777 233.065 C 70.272 234.002 69.116 235.407 68.487 237.065 C 66.935 241.242 69.055 245.888 73.227 247.455 L 73.297 247.495 Z"
       style="stroke-width:1;fill:#00a6bd;fill-opacity:1"
       id="path7"
       transform="translate(-3.3045106e-7)" />
    <path
       d="M 157.277 244.215 C 157.277 244.984 158.11 245.465 158.777 245.081 C 159.086 244.902 159.277 244.572 159.277 244.215 C 159.327 239.28 154.018 236.142 149.719 238.565 C 149.188 238.864 148.702 239.238 148.277 239.675 C 147.882 240.066 147.882 240.703 148.277 241.095 C 148.667 241.482 149.297 241.482 149.687 241.095 C 150.51 240.259 151.634 239.791 152.807 239.795 C 155.267 239.767 157.277 241.754 157.277 244.215 Z"
       style="stroke-width:1;fill:#00a6bd;fill-opacity:1"
       id="path8"
       transform="translate(-3.3045106e-7)" />
    <path
       d="M 190.907 227.685 C 190.906 225.117 189.618 222.721 187.477 221.305 C 187.947 220.257 188.189 219.122 188.187 217.975 C 188.189 211.616 181.307 207.64 175.799 210.817 C 174.355 211.65 173.197 212.901 172.477 214.405 C 168.04 213.838 164.654 218.286 166.381 222.411 C 166.816 223.451 167.544 224.342 168.477 224.975 C 169.079 225.454 169.974 225.102 170.089 224.341 C 170.15 223.933 169.954 223.529 169.597 223.325 C 167.176 221.668 167.457 218.013 170.101 216.745 C 170.939 216.343 171.893 216.262 172.787 216.515 C 173.296 216.661 173.831 216.385 174.007 215.885 C 175.617 211.343 181.541 210.248 184.669 213.913 C 185.637 215.049 186.169 216.492 186.167 217.985 C 186.166 219.117 185.855 220.227 185.267 221.195 C 185.12 221.438 185.083 221.733 185.167 222.005 C 185.25 222.273 185.442 222.495 185.697 222.615 C 189.492 224.388 190.068 229.548 186.757 232.115 C 185.918 231.381 184.943 230.82 183.887 230.465 C 183.176 230.169 182.412 230.754 182.511 231.517 C 182.563 231.92 182.854 232.251 183.247 232.355 C 188.102 234 189.356 240.284 185.504 243.667 C 184.736 244.341 183.823 244.83 182.837 245.095 C 182.303 245.241 181.99 245.792 182.137 246.325 C 182.257 246.774 182.672 247.08 183.137 247.065 C 183.223 247.074 183.31 247.074 183.397 247.065 C 188.018 245.799 190.74 241.027 189.477 236.405 C 189.201 235.399 188.747 234.45 188.137 233.605 C 189.902 232.148 190.92 229.974 190.907 227.685 Z"
       style="stroke-width:1;fill:#00a6bd;fill-opacity:1"
       id="path9"
       transform="translate(-3.3045106e-7)" />
    <path
       style="fill:#00a6bd;fill-opacity:1;stroke:#000000;stroke-opacity:0"
       d="m 136.27,191.167 c 2.244,1.873 4.239,4.459 4.638,7.487 0.153,1.161 -0.452,2.149 -0.488,3.49 -0.054,2.093 0.049,4.186 0.049,6.278 v 1.742 l 0.63437,1.66478 c 0.19584,0.51395 1.18049,7.99027 0.15197,8.08863 -0.793,0.077 -3.03234,-4.01541 -3.80834,-4.15541 -0.958,-0.174 -3.012,-0.257 -3.534,-1.278 -0.53,-1.037 0.309,-1.672 0.548,-2.542 0.365,-1.329 0.474,-3.148 0.535,-4.529 0.137,-3.116 -0.595,-6.28 -0.021,-9.404 0.329,-1.793 0.005,-3.749 0.035,-5.57 0.01,-0.665 0.1,-1.289 0.328,-1.911 0.09,-0.248 -0.058,-0.965 0.132,-0.781 0.407,0.393 0.637,1.015 0.977,1.468"
       id="path11"
       sodipodi:nodetypes="cscscscccccccccc" />
    <path
       style="fill:#00a6bd;fill-opacity:1;stroke:#000000;stroke-opacity:0"
       d="m 122.711,190.576 c 0,3.688 0.556,6.875 0.749,10.472 0.139,2.59 -0.301,5.662 -0.361,8.345 -0.03,1.348 0.785,5.14 -0.258,6.16 -4.83201,0.2455 -6.06408,6.05635 -6.76108,3.84135 0.0968,-10.44501 1.25708,-7.17035 1.16008,-8.40535 -0.25,-3.167 -0.366,-6.266 -0.366,-9.456 0,-1.818 -0.437,-3.945 0.206,-5.676 0.977,-2.629 4.44,-2.928 5.51,-5.165"
       id="path12"
       sodipodi:nodetypes="ccccccscc" />
  </g>
</svg>

<?xml version="1.0" encoding="utf-8"?>
<svg xmlns="http://www.w3.org/2000/svg" viewBox="67.9786 128.7762 122.9286 119.2394" width="122.929px" height="119.239px" preserveAspectRatio="none"><g id="object-0" transform="matrix(1, 0, 0, 1, 0, 7.105427357601002e-15)"><g id="Layer_1"><title/><path d="M 141.607 215.795 L 141.607 196.135 C 141.607 195.901 141.526 195.674 141.377 195.495 L 135.647 188.605 L 135.647 145.795 L 135.647 139.795 C 135.646 139.661 135.622 139.53 135.577 139.405 C 135.582 139.361 135.582 139.318 135.577 139.275 L 129.757 129.275 C 129.371 128.61 128.412 128.61 128.027 129.275 L 122.207 139.275 C 122.184 139.315 122.167 139.359 122.157 139.405 C 122.111 139.52 122.084 139.641 122.077 139.765 L 122.077 145.765 L 122.077 188.605 L 116.357 195.495 C 116.208 195.674 116.126 195.901 116.127 196.135 L 116.127 215.795 C 116.127 216.347 116.574 216.795 117.127 216.795 L 127.827 216.795 L 127.827 219.545 C 127.827 220.314 128.66 220.795 129.327 220.411 C 129.636 220.232 129.827 219.902 129.827 219.545 L 129.827 216.795 L 140.607 216.795 C 141.159 216.795 141.607 216.347 141.607 215.795 Z M 124.007 140.795 L 133.647 140.795 L 133.647 144.795 L 124.007 144.795 L 124.007 140.795 Z M 128.827 131.795 L 132.927 138.795 L 124.737 138.795 L 128.827 131.795 Z M 118.057 196.495 L 122.057 191.735 L 122.057 214.795 L 118.057 214.795 L 118.057 196.495 Z M 129.827 214.795 L 129.827 181.135 C 129.827 180.365 128.993 179.884 128.327 180.269 C 128.017 180.447 127.827 180.777 127.827 181.135 L 127.827 214.795 L 124.007 214.795 L 124.007 146.795 L 133.647 146.795 L 133.647 214.795 L 129.827 214.795 Z M 139.607 214.795 L 135.607 214.795 L 135.607 191.735 L 139.607 196.495 L 139.607 214.795 Z" style="stroke-width: 1;"/><path d="M 124.477 219.135 C 123.924 219.135 123.477 219.582 123.477 220.135 L 123.477 230.965 C 121.98 231.222 120.738 232.265 120.227 233.695 C 120.039 234.214 120.308 234.787 120.827 234.975 C 120.936 235.014 121.051 235.034 121.167 235.035 C 121.59 235.033 121.967 234.764 122.107 234.365 C 122.521 233.205 123.794 232.597 124.957 233.005 C 125.664 233.309 126.435 232.735 126.346 231.97 C 126.299 231.569 126.015 231.235 125.627 231.125 L 125.477 231.125 L 125.477 220.125 C 125.471 219.576 125.025 219.135 124.477 219.135 Z" style="stroke-width: 1;"/><path d="M 134.167 225.635 L 134.167 220.135 C 134.167 219.365 133.333 218.884 132.667 219.269 C 132.357 219.447 132.167 219.777 132.167 220.135 L 132.167 225.635 C 132.167 226.404 133 226.885 133.667 226.501 C 133.976 226.322 134.167 225.992 134.167 225.635 Z" style="stroke-width: 1;"/><path d="M 125.697 237.215 C 126.314 237.213 126.857 237.621 127.027 238.215 C 127.214 238.961 128.139 239.226 128.692 238.691 C 128.747 238.638 128.795 238.579 128.837 238.515 C 129.855 236.836 132.308 236.89 133.252 238.611 C 133.463 238.995 133.571 239.426 133.567 239.865 C 133.567 240.634 134.4 241.115 135.067 240.731 C 135.376 240.552 135.567 240.222 135.567 239.865 C 135.572 236.354 131.775 234.155 128.732 235.906 C 128.542 236.015 128.359 236.139 128.187 236.275 C 127.548 235.575 126.644 235.176 125.697 235.175 C 124.927 235.175 124.446 236.008 124.831 236.675 C 125.009 236.984 125.339 237.175 125.697 237.175 L 125.697 237.215 Z" style="stroke-width: 1;"/><path d="M 138.697 234.085 C 138.697 234.854 139.53 235.335 140.197 234.951 C 140.506 234.772 140.697 234.442 140.697 234.085 C 140.691 230.703 137.948 227.965 134.567 227.965 C 133.797 227.965 133.316 228.798 133.701 229.465 C 133.879 229.774 134.209 229.965 134.567 229.965 C 136.844 229.965 138.691 231.808 138.697 234.085 Z" style="stroke-width: 1;"/><path d="M 170.697 233.465 C 170.734 225.959 162.632 221.228 156.114 224.949 C 154.028 226.139 152.456 228.057 151.697 230.335 C 150.831 229.923 149.885 229.712 148.927 229.715 C 145.337 229.715 142.427 232.625 142.427 236.215 C 142.427 236.984 143.26 237.465 143.927 237.081 C 144.236 236.902 144.427 236.572 144.427 236.215 C 144.432 233.732 146.444 231.72 148.927 231.715 C 149.94 231.721 150.921 232.074 151.707 232.715 C 152.3 233.178 153.173 232.845 153.307 232.105 C 154.395 226.239 161.425 223.75 165.961 227.625 C 167.678 229.093 168.67 231.236 168.677 233.495 C 168.677 234.264 169.51 234.745 170.177 234.361 C 170.486 234.182 170.677 233.852 170.677 233.495 L 170.697 233.465 Z" style="stroke-width: 1;"/><path d="M 73.297 247.495 C 75.302 248.256 77.528 248.18 79.477 247.285 C 80.177 246.965 80.269 246.007 79.642 245.56 C 79.351 245.353 78.972 245.316 78.647 245.465 C 75.608 246.823 72.043 245.485 70.647 242.465 C 69.268 239.456 70.554 235.898 73.537 234.465 C 74.034 234.808 74.563 235.103 75.117 235.345 C 75.232 235.385 75.354 235.405 75.477 235.405 C 76.246 235.403 76.726 234.569 76.34 233.903 C 76.231 233.716 76.065 233.569 75.867 233.485 C 70.566 231.256 69.666 224.124 74.246 220.648 C 74.446 220.497 74.653 220.355 74.867 220.225 C 75.447 219.874 75.518 219.06 75.007 218.615 C 74.08 217.822 73.546 216.664 73.547 215.445 C 73.594 212.181 77.157 210.193 79.96 211.866 C 80.217 212.02 80.457 212.2 80.677 212.405 C 80.921 212.631 81.262 212.721 81.587 212.645 C 81.914 212.567 82.181 212.331 82.297 212.015 C 83.802 207.795 89.311 206.787 92.213 210.2 C 92.919 211.032 93.378 212.045 93.537 213.125 C 90.031 213.782 87.488 216.838 87.477 220.405 C 87.477 221.174 88.31 221.655 88.977 221.271 C 89.286 221.092 89.477 220.762 89.477 220.405 C 89.461 216.217 93.984 213.582 97.619 215.662 C 101.057 217.63 101.306 222.496 98.087 224.805 C 95.157 226.031 93.108 228.733 92.717 231.885 C 92.386 231.829 92.052 231.799 91.717 231.795 C 90.013 231.79 88.378 232.467 87.177 233.675 C 86.782 234.066 86.782 234.703 87.177 235.095 C 87.567 235.482 88.197 235.482 88.587 235.095 C 90.978 232.685 95.081 233.768 95.972 237.044 C 96.076 237.425 96.128 237.819 96.127 238.215 C 96.127 238.984 96.96 239.465 97.627 239.081 C 97.936 238.902 98.127 238.572 98.127 238.215 C 98.126 235.815 96.788 233.617 94.657 232.515 C 94.826 229.918 96.454 227.643 98.857 226.645 C 103.157 224.884 107.923 227.839 108.257 232.475 C 108.303 233.152 108.996 233.587 109.627 233.335 C 110.208 233.097 110.829 232.975 111.457 232.975 C 114.218 232.975 116.457 235.213 116.457 237.975 C 116.457 238.744 117.29 239.225 117.957 238.841 C 118.266 238.662 118.457 238.332 118.457 237.975 C 118.445 233.574 114.424 230.276 110.107 231.125 C 109.229 227.055 105.64 224.144 101.477 224.125 L 101.327 224.125 C 104.091 219.427 101.007 213.453 95.577 212.985 C 94.855 207 87.926 204.042 83.104 207.659 C 82.229 208.316 81.5 209.149 80.967 210.105 C 80.005 209.522 78.901 209.214 77.777 209.215 C 72.981 209.184 69.95 214.356 72.321 218.525 C 72.457 218.764 72.61 218.995 72.777 219.215 C 68.465 222.655 68.004 229.041 71.777 233.065 C 70.272 234.002 69.116 235.407 68.487 237.065 C 66.935 241.242 69.055 245.888 73.227 247.455 L 73.297 247.495 Z" style="stroke-width: 1;"/><path d="M 157.277 244.215 C 157.277 244.984 158.11 245.465 158.777 245.081 C 159.086 244.902 159.277 244.572 159.277 244.215 C 159.327 239.28 154.018 236.142 149.719 238.565 C 149.188 238.864 148.702 239.238 148.277 239.675 C 147.882 240.066 147.882 240.703 148.277 241.095 C 148.667 241.482 149.297 241.482 149.687 241.095 C 150.51 240.259 151.634 239.791 152.807 239.795 C 155.267 239.767 157.277 241.754 157.277 244.215 Z" style="stroke-width: 1;"/><path d="M 190.907 227.685 C 190.906 225.117 189.618 222.721 187.477 221.305 C 187.947 220.257 188.189 219.122 188.187 217.975 C 188.189 211.616 181.307 207.64 175.799 210.817 C 174.355 211.65 173.197 212.901 172.477 214.405 C 168.04 213.838 164.654 218.286 166.381 222.411 C 166.816 223.451 167.544 224.342 168.477 224.975 C 169.079 225.454 169.974 225.102 170.089 224.341 C 170.15 223.933 169.954 223.529 169.597 223.325 C 167.176 221.668 167.457 218.013 170.101 216.745 C 170.939 216.343 171.893 216.262 172.787 216.515 C 173.296 216.661 173.831 216.385 174.007 215.885 C 175.617 211.343 181.541 210.248 184.669 213.913 C 185.637 215.049 186.169 216.492 186.167 217.985 C 186.166 219.117 185.855 220.227 185.267 221.195 C 185.12 221.438 185.083 221.733 185.167 222.005 C 185.25 222.273 185.442 222.495 185.697 222.615 C 189.492 224.388 190.068 229.548 186.757 232.115 C 185.918 231.381 184.943 230.82 183.887 230.465 C 183.176 230.169 182.412 230.754 182.511 231.517 C 182.563 231.92 182.854 232.251 183.247 232.355 C 188.102 234 189.356 240.284 185.504 243.667 C 184.736 244.341 183.823 244.83 182.837 245.095 C 182.303 245.241 181.99 245.792 182.137 246.325 C 182.257 246.774 182.672 247.08 183.137 247.065 C 183.223 247.074 183.31 247.074 183.397 247.065 C 188.018 245.799 190.74 241.027 189.477 236.405 C 189.201 235.399 188.747 234.45 188.137 233.605 C 189.902 232.148 190.92 229.974 190.907 227.685 Z" style="stroke-width: 1;"/></g><path style="stroke: rgb(0, 0, 0); stroke-opacity: 0;" d="M 124.036 140.136 C 124.036 141.641 124.036 143.147 124.036 144.652 C 124.036 144.706 123.967 146.128 124.022 146.15 C 124.798 146.456 126.561 146.164 127.327 146.164 C 129.708 146.164 134.227 147.466 134.838 144.24 C 134.942 143.69 134.884 143.07 134.874 142.515 C 134.87 142.298 134.61 139.827 134.316 139.737 C 132.754 139.258 130.43 139.971 128.824 139.981 C 127.835 139.988 124.689 139.458 123.954 140.465"/><path style="stroke: rgb(0, 0, 0); stroke-opacity: 0;" d="M 136.27 191.167 C 138.514 193.04 140.509 195.626 140.908 198.654 C 141.061 199.815 140.456 200.803 140.42 202.144 C 140.366 204.237 140.469 206.33 140.469 208.422 C 140.469 209.003 140.469 209.583 140.469 210.164 C 140.469 210.56 140.469 210.956 140.469 211.353 C 140.469 211.903 141.194 215.796 139.769 215.934 C 138.976 216.011 138.223 215.902 137.447 215.762 C 136.489 215.588 134.435 215.505 133.913 214.484 C 133.383 213.447 134.222 212.812 134.461 211.942 C 134.826 210.613 134.935 208.794 134.996 207.413 C 135.133 204.297 134.401 201.133 134.975 198.009 C 135.304 196.216 134.98 194.26 135.01 192.439 C 135.02 191.774 135.11 191.15 135.338 190.528 C 135.428 190.28 135.28 189.563 135.47 189.747 C 135.877 190.14 136.107 190.762 136.447 191.215"/><path style="stroke: rgb(0, 0, 0); stroke-opacity: 0;" d="M 122.711 190.576 C 122.711 194.264 123.267 197.451 123.46 201.048 C 123.599 203.638 123.159 206.71 123.099 209.393 C 123.069 210.741 123.884 214.533 122.841 215.553 C 121.498 216.869 118.006 217.367 117.309 215.152 C 116.93 213.945 117.337 212.224 117.24 210.989 C 116.99 207.822 116.874 204.723 116.874 201.533 C 116.874 199.715 116.437 197.588 117.08 195.857 C 118.057 193.228 121.52 192.929 122.59 190.692"/></g></svg>
